X:1
T:Look to the Lamb of God
T:Look to the Lamb of God
T:James Milton Black
T:Henry Godden Jackson, 1908
T:Public Domain Courtesy of the Cyber Hymnal™
C:James Milton Black
Z:Public Domain
Z:Courtesy of the Cyber Hymnal™
%%score ( 1 2 ) ( 3 4 )
L:1/8
Q:1/4=108
M:4/4
K:F
V:1 treble 
V:2 treble 
V:3 bass 
V:4 bass 
V:1
 [CA]2 [CA]>[DB] [CA]2 C2 | [CF]>[CG] [FA]>[FB] [Fc]4 | [Fc]2 [Fc]>[FA] F2 [FA]2 | [EG]6 z2 | %4
w: 1.~If you from sin Are|long- ing to be free,|Look to the Lamb of|God.|
w: 2.~When Sa- tan tempts And|doubts and fears as- sail,|Look to the Lamb of|God.|
w: 3.~Are you a- wear- y?|Does the way seem long?|Look to the Lamb of|God.|
w: 4.~Fear not when sha- dows|on your path- way fall,|Look to the Lamb of|God.|
 [CA]2 [CA]>[DB] [CA]2 C2 | [CF]>[CG] [FA]>[FB] [Fc]4 | [Ec]2 [Ec]>[EB] [EA]2 [CG]2 | [CF]6 z2 || %8
w: He to re- deem you|died on Cal- va- ry,|Look to the Lamb of|God.|
w: You in His strength Shall|o- ver all pre- vail,|Look to the Lamb of|God.|
w: His love will cheer And|fill your heart with song.|Look to the Lamb of|God.|
w: In joy or sor- row|Christ is all in all.|Look to the Lamb of|God.|
"^Refrain" [Fc]2 [Fc]>[Fd] [Fc]2 [CF]2 | [CE]6 z2 | [EG]2 [GB]>[Ac] [Be]2 [Bd]2 | [Ac]6 z2 | %12
w: ||||
w: Look to the Lamb of|God.|Look to the Lamb of|God.|
w: ||||
w: ||||
 [FA]2 [FA]>[EB] [Fc]2 [FA]2 | [FB]2 [Fd]>[Fd] [Fd]2 [FB]2 | [FA]2 [Fc]>[FB] [EA]2 [EG]2 | [CF]8 |] %16
w: ||||
w: For He a- lone is|a- ble to save you,|Look to the Lamb of|God.|
w: ||||
w: ||||
V:2
 x6 C2 | x8 | x4 F2 x2 | x8 | x6 C2 | x8 | x8 | x8 || x8 | x8 | x8 | x8 | x8 | x8 | x8 | x8 |] %16
V:3
 F,2 F,>F, F,2 [F,A,]2 | [F,A,]>[F,B,] [F,C]>[F,G,] [F,A,]4 | [F,A,]2 [F,A,]>[F,C] [A,C]2 [F,C]2 | %3
w: ~ ~ ~ ~ ~|~ ~ ~ ~ ~|~ ~ ~ ~ ~|
 [C,C]6 z2 | F,2 F,>F, F,2 [F,A,]2 | [F,A,]>[F,B,] [F,C]>[F,G,] [F,A,]4 | %6
w: ~|~ ~ ~ ~ ~|~ ~ ~ ~ ~|
 [C,G,]2 [C,G,]>[C,C] [C,C]2 [C,B,]2 | [F,A,]6 z2 || [F,A,]2 [F,A,]>[F,B,] [F,A,]2 [F,A,]2 | %9
w: ~ ~ ~ ~ ~|~|~ ~ ~ ~ the|
 [G,B,]2 [G,B,]2 [C,B,]2 z2 | [C,C]2 [C,C]>[C,C] [C,C]2 [C,E]2 | [F,F]2 [C,F]2 [F,F]2 z2 | %12
w: Lamb of God,|~ ~ ~ ~ the|Lamb of God,|
 [F,C]2 [F,C]>[G,C] [A,C]2 [F,C]2 | [B,,D]2 [B,,B,]>[B,,B,] [B,,B,]2 [B,,D]2 | %14
w: ||
 [C,C]2 [C,A,]>[C,D] [C,C]2 [C,B,]2 | [F,A,]8 |] %16
w: ||
V:4
 F,2 F,>F, F,2 x2 | x8 | x8 | x8 | F,2 F,>F, F,2 x2 | x8 | x8 | x8 || x8 | x8 | x8 | x8 | x8 | x8 | %14
 x8 | x8 |] %16

